storage/app/icons/phosphoricons/regular/git-diff.svg

<svg xmlns="http://www.w3.org/2000/svg" fill="currentColor" viewBox="0 0 256 256"><path d="M112 152a8 8 0 0 0-8 8v28.69L66.34 151a8 8 0 0 1-2.34-5.63V95a32 32 0 1 0-16 0v50.38a23.85 23.85 0 0 0 7 17L92.69 200H64a8 8 0 0 0 0 16h48a8 8 0 0 0 8-8v-48a8 8 0 0 0-8-8M40 64a16 16 0 1 1 16 16 16 16 0 0 1-16-16m168 97v-50.37a23.85 23.85 0 0 0-7-17L163.31 56H192a8 8 0 0 0 0-16h-48a8 8 0 0 0-8 8v48a8 8 0 0 0 16 0V67.31L189.66 105a8 8 0 0 1 2.34 5.66V161a32 32 0 1 0 16 0m-8 47a16 16 0 1 1 16-16 16 16 0 0 1-16 16"/></svg>

<svg xmlns="http://www.w3.org/2000/svg" viewBox="0 0 256 256" fill="currentColor"><path d="M112,152a8,8,0,0,0-8,8v28.69L66.34,151A8,8,0,0,1,64,145.37V95a32,32,0,1,0-16,0v50.38a23.85,23.85,0,0,0,7,17L92.69,200H64a8,8,0,0,0,0,16h48a8,8,0,0,0,8-8V160A8,8,0,0,0,112,152ZM40,64A16,16,0,1,1,56,80,16,16,0,0,1,40,64Zm168,97V110.63a23.85,23.85,0,0,0-7-17L163.31,56H192a8,8,0,0,0,0-16H144a8,8,0,0,0-8,8V96a8,8,0,0,0,16,0V67.31L189.66,105a8,8,0,0,1,2.34,5.66V161a32,32,0,1,0,16,0Zm-8,47a16,16,0,1,1,16-16A16,16,0,0,1,200,208Z"/></svg>
